outputs/icons/device/bluetooth_searching_sharp.svg

<svg xmlns="http://www.w3.org/2000/svg" width="1200" height="1200" fill="none"><g clip-path="url(#a)"><path fill="#000" d="m712 600.5 116 116c14-36 22-75.5 22-116.5s-8-79.5-21.5-115.5zm264.5-265-63 63c31.5 60.5 49 128.5 49 201s-18 141-49 201l60 60c48.5-77 77-168 77-265.5-.5-94.5-27.5-183.5-74-259.5m-191 50L500 100h-50v379.5L220.5 250 150 320.5 429.5 600 150 879.5l70.5 70.5L450 720.5V1100h50l285.5-285.5-215-214.5zm-235.5-94 94 94-94 94zm94 523-94 94v-188z"/></g><defs><clipPath id="a"><path fill="#fff" d="M0 0h1200v1200H0z"/></clipPath></defs></svg>

<svg width="1200" height="1200" viewBox="0 0 1200 1200" fill="none" xmlns="http://www.w3.org/2000/svg"><g clip-path="url(#clip0_231_4423)"><path d="M712 600.5L828 716.5C842 680.5 850 641 850 600C850 559 842 520.5 828.5 484.5L712 600.5ZM976.5 335.5L913.5 398.5C945 459 962.5 527 962.5 599.5C962.5 672 944.5 740.5 913.5 800.5L973.5 860.5C1022 783.5 1050.5 692.5 1050.5 595C1050 500.5 1023 411.5 976.5 335.5ZM785.5 385.5L500 100H450V479.5L220.5 250L150 320.5L429.5 600L150 879.5L220.5 950L450 720.5V1100H500L785.5 814.5L570.5 600L785.5 385.5ZM550 291.5L644 385.5L550 479.5V291.5ZM644 814.5L550 908.5V720.5L644 814.5Z" fill="black"/></g><defs><clipPath id="clip0_231_4423"><path width="24" fill="white" d="M0 0H1200V1200H0V0z"/></clipPath></defs></svg>
